X:571
T:Cameron's Got His Wife Again
B:Kerr's Merry Melodies Bk.1 (c.1870s)
Z:Nigel Gatherer
L:1/8
M:4/4
K:D
B | d>BA>F A<AA>B | d>BA>F E<EE>c | d>BA>F A<gf>e | d>BA>F D<D D  :|
g | f<df<a e<gf>e | f<df<a Bg | f<df<a e<gf>e | d>BA>F D<D D>g |
f<df<a e<gf>e | f<df<a Bc | d/e/f/g/ a>f e<gf>e | d>BA>F D<D D |]
